static/favicon.svg

<svg width="260" height="260" viewBox="0 0 260 260" fill="none" xmlns="http://www.w3.org/2000/svg">
<rect width="260" height="260" fill="url(#paint0_linear_1065_2)"/>
<path d="M184.037 152.176C184.167 151.964 184.291 151.768 184.41 151.569C188.522 144.572 192.632 137.573 196.755 130.582C197.001 130.165 197.023 129.868 196.769 129.439C192.629 122.431 188.506 115.416 184.399 108.391C184.145 107.956 183.873 107.823 183.381 107.826C170.248 107.834 157.114 107.828 143.983 107.826C143.71 107.826 143.44 107.826 143.07 107.826C143.227 107.534 143.316 107.348 143.419 107.171C148.165 99.0893 152.921 91.0106 157.651 82.9187C157.905 82.4863 158.18 82.3537 158.669 82.3537C170.572 82.367 182.474 82.3696 194.376 82.3617C196.888 82.359 198.959 83.2608 200.557 85.1651C200.87 85.5391 201.13 85.9634 201.375 86.3851C209.83 100.765 218.278 115.146 226.73 129.526C226.816 129.672 226.897 129.823 227 130.006C226.881 130.216 226.757 130.436 226.63 130.653C218.192 145.018 209.757 159.382 201.31 173.741C199.788 176.333 197.479 177.64 194.433 177.64C177.519 177.646 160.605 177.643 143.694 177.643C143.478 177.643 143.265 177.643 143.043 177.643C142.908 177.423 142.781 177.226 142.663 177.028C133.522 161.47 124.382 145.914 115.242 130.356C110.96 123.065 106.672 115.774 102.408 108.47C102.119 107.974 101.806 107.82 101.239 107.823C93.0521 107.842 84.8651 107.842 76.6782 107.823C76.1327 107.823 75.8411 107.982 75.5684 108.452C71.5073 115.403 67.4219 122.344 63.342 129.285C63.2123 129.505 63.0854 129.728 62.9423 129.977C63.0233 130.136 63.1016 130.309 63.1961 130.47C67.3517 137.541 71.51 144.609 75.6494 151.691C75.9005 152.12 76.1975 152.184 76.6376 152.184C89.7713 152.176 102.905 152.179 116.039 152.181C116.32 152.181 116.598 152.181 116.865 152.181C116.887 152.227 116.897 152.242 116.905 152.264C116.914 152.282 116.927 152.309 116.919 152.322C116.865 152.436 116.814 152.553 116.749 152.664C111.862 160.982 106.974 169.299 102.071 177.643C101.817 177.643 101.582 177.643 101.347 177.643C89.4446 177.643 77.5422 177.643 65.6398 177.643C62.54 177.643 60.2097 176.33 58.6598 173.694C50.1975 159.295 41.7378 144.896 33.2781 130.494C33.1809 130.33 33.0972 130.16 33 129.982C33.2889 129.492 33.5697 129.014 33.8506 128.537C41.9862 114.687 50.1219 100.84 58.2602 86.9898C58.4546 86.6583 58.649 86.3268 58.8515 86.0032C60.2448 83.7912 62.2673 82.5898 64.9054 82.3856C65.2051 82.3617 65.5102 82.3643 65.8126 82.3643C82.5942 82.3643 99.3786 82.3643 116.16 82.3643C116.247 82.3643 116.336 82.3776 116.419 82.3617C116.854 82.2874 117.073 82.5049 117.278 82.8577C118.796 85.4727 120.335 88.0799 121.866 90.687C129.486 103.654 137.106 116.62 144.723 129.587C149.03 136.915 153.334 144.243 157.627 151.579C157.881 152.012 158.148 152.189 158.68 152.189C166.91 152.171 175.14 152.176 183.37 152.176C183.589 152.176 183.802 152.176 184.037 152.176Z" fill="#01829E"/>
<path d="M214 152.345C213.854 152.625 213.765 152.815 213.662 152.994C209.551 160.042 205.448 167.099 201.319 174.14C199.83 176.675 197.556 177.987 194.593 177.99C177.611 178.006 160.627 177.998 143.646 177.998C143.473 177.998 143.303 177.998 143.084 177.998C124.431 146.044 105.78 114.088 87.075 82.0454C87.3964 82.0294 87.6044 82.0107 87.8097 82.0107C97.339 82.008 106.866 82.0134 116.395 82C116.835 82 117.086 82.1283 117.313 82.5157C126.5 98.2856 135.697 114.047 144.894 129.812C149.178 137.157 153.467 144.502 157.734 151.858C157.986 152.291 158.28 152.355 158.723 152.355C176.785 152.347 194.85 152.347 212.911 152.347C213.233 152.345 213.557 152.345 214 152.345ZM47.953 104.354C42.9291 112.965 37.9672 121.47 33 129.98C33.108 130.178 33.1945 130.346 33.289 130.512C41.7514 145.018 50.2111 159.521 58.6762 174.025C60.2266 176.681 62.563 177.995 65.6638 177.995C77.5673 177.995 89.4708 177.995 101.374 177.995C101.609 177.995 101.844 177.995 102.093 177.995C107.011 169.568 111.911 161.173 116.808 152.775C116.862 152.684 116.903 152.582 116.946 152.486C116.951 152.47 116.94 152.446 116.932 152.427C116.924 152.409 116.913 152.39 116.889 152.342C103.273 152.342 89.6437 152.342 75.9467 152.342C66.6173 136.348 57.3094 120.391 47.953 104.354Z" fill="url(#paint1_linear_1065_2)"/>
<defs>
<linearGradient id="paint0_linear_1065_2" x1="130" y1="0" x2="130" y2="260" gradientUnits="userSpaceOnUse">
<stop stop-color="#03035F"/>
<stop offset="1" stop-color="#02023B"/>
</linearGradient>
<linearGradient id="paint1_linear_1065_2" x1="210.718" y1="245.058" x2="27.2829" y2="39.1143" gradientUnits="userSpaceOnUse">
<stop offset="0.3296" stop-color="#01FEDA"/>
<stop offset="0.6648" stop-color="#01FEFE"/>
</linearGradient>
</defs>
</svg>

<svg width="260" height="260" fill="none" xmlns="http://www.w3.org/2000/svg"><path fill="url(#prefix__paint0_linear_1065_2)" d="M0 0h260v260H0z"/><path d="M184.037 152.176c.13-.212.254-.408.373-.607 4.112-6.997 8.222-13.996 12.345-20.987.246-.417.268-.714.014-1.143a5360.423 5360.423 0 01-12.37-21.048c-.254-.435-.526-.568-1.018-.565-13.133.008-26.267.002-39.398 0h-.913c.157-.292.246-.478.349-.655 4.746-8.082 9.502-16.16 14.232-24.252.254-.433.529-.565 1.018-.565 11.903.013 23.805.016 35.707.008 2.512-.003 4.583.899 6.181 2.803.313.374.573.798.818 1.22 8.455 14.38 16.903 28.761 25.355 43.141.086.146.167.297.27.48-.119.21-.243.43-.37.647-8.438 14.365-16.873 28.729-25.32 43.088-1.522 2.592-3.831 3.899-6.877 3.899-16.914.006-33.828.003-50.739.003h-.651c-.135-.22-.262-.417-.38-.615l-27.421-46.672c-4.282-7.291-8.57-14.582-12.834-21.886-.289-.496-.602-.65-1.169-.647-8.187.019-16.374.019-24.56 0-.546 0-.838.159-1.11.629-4.062 6.951-8.147 13.892-12.227 20.833-.13.22-.257.443-.4.692.081.159.16.332.254.493 4.156 7.071 8.314 14.139 12.453 21.221.251.429.549.493.989.493 13.133-.008 26.267-.005 39.401-.003h.826c.022.046.032.061.04.083.009.018.022.045.014.058-.054.114-.105.231-.17.342l-14.678 24.979H65.64c-3.1 0-5.43-1.313-6.98-3.949-8.462-14.399-16.922-28.798-25.382-43.2-.097-.164-.18-.334-.278-.512l.85-1.445c8.136-13.85 16.272-27.697 24.41-41.547.195-.332.389-.663.592-.987 1.393-2.212 3.415-3.413 6.053-3.617.3-.024.605-.022.908-.022h50.347c.087 0 .176.014.259-.002.435-.075.654.143.859.496 1.518 2.615 3.057 5.222 4.588 7.829 7.62 12.967 15.24 25.933 22.857 38.9a13441.32 13441.32 0 0112.904 21.992c.254.433.521.61 1.053.61 8.23-.018 16.46-.013 24.69-.013h.667z" fill="#01829E"/><path d="M214 152.345c-.146.28-.235.47-.338.649-4.111 7.048-8.214 14.105-12.343 21.146-1.489 2.535-3.763 3.847-6.726 3.85-16.982.016-33.966.008-50.947.008h-.562L87.075 82.045c.321-.016.53-.034.735-.034 9.529-.003 19.056.002 28.585-.011.44 0 .691.128.918.516 9.187 15.77 18.384 31.531 27.581 47.296 4.284 7.345 8.573 14.69 12.84 22.046.252.433.546.497.989.497 18.062-.008 36.127-.008 54.188-.008.322-.002.646-.002 1.089-.002zM47.953 104.354C42.929 112.965 37.967 121.47 33 129.98c.108.198.194.366.289.532 8.462 14.506 16.922 29.009 25.387 43.513 1.55 2.656 3.887 3.97 6.988 3.97h36.429c4.918-8.427 9.818-16.822 14.715-25.22.054-.091.095-.193.138-.289.005-.016-.006-.04-.014-.059l-.043-.085H75.947l-27.994-47.988z" fill="url(#prefix__paint1_linear_1065_2)"/><defs><linearGradient id="prefix__paint0_linear_1065_2" x1="130" y1="0" x2="130" y2="260" gradientUnits="userSpaceOnUse"><stop stop-color="#03035F"/><stop offset="1" stop-color="#02023B"/></linearGradient><linearGradient id="prefix__paint1_linear_1065_2" x1="210.718" y1="245.058" x2="27.283" y2="39.114" gradientUnits="userSpaceOnUse"><stop offset=".33" stop-color="#01FEDA"/><stop offset=".665" stop-color="#01FEFE"/></linearGradient></defs></svg>
